X: 9329
T: Dancing Alice
R: reel
M: 4/4
K: Eminor
|:"Em" E2 EFGE GA|"G" B2 BcBA G2|"D" FDAD BDAD|"Em" _E=EBE "Am" cE "B" BD
"Em" E2 EFGE GA|"G" B2 BcBA G2|"D" FDAD BDAD|1 "D" dB AF "Em" GEEB,:|2 "D" dB AF "Em" EFGA||
|:"Em" BGEB "D" AFDA|"Em" G2 GA GF E2|"G" B2 Bc d2 cB|"D" AFDF "B" EFGA|
"Em" BGEB "D" AFDA|"Em" G2 GA GF E2|"G" BGEc "D" AFDA|1 "D" cBAF "Em" GEEG:|2 "D" cBAF "Em" GE E2||

